build/img/logo-mobile.svg

<svg width="96" height="38" viewBox="0 0 96 38" fill="none" xmlns="http://www.w3.org/2000/svg">
<path d="M48.3627 15.7764V17.4414H40.2162V5.5H48.2122V7.16508H42.0897V10.5625H47.3925V12.1267H42.0897V15.7764H48.3627Z" fill="white"/>
<path d="M53.1416 17.6096C52.439 17.6096 51.7364 17.4975 51.0339 17.2733C50.3424 17.0378 49.7458 16.707 49.244 16.2809L49.98 15.1036C50.5041 15.4848 51.0227 15.7764 51.5357 15.9782C52.0487 16.1688 52.5728 16.2641 53.1081 16.2641C53.6546 16.2641 54.0839 16.1576 54.3962 15.9446C54.7196 15.7315 54.8813 15.4288 54.8813 15.0363C54.8813 14.6663 54.7029 14.3972 54.346 14.229C53.9891 14.0608 53.4315 13.8758 52.6732 13.674C52.1268 13.5282 51.6584 13.3881 51.2681 13.2535C50.8777 13.119 50.5599 12.962 50.3146 12.7826C50.0692 12.6032 49.8908 12.3958 49.7793 12.1603C49.6677 11.9248 49.612 11.6389 49.612 11.3025C49.612 10.854 49.6956 10.456 49.8629 10.1084C50.0413 9.7608 50.2811 9.46927 50.5822 9.2338C50.8945 8.98713 51.2569 8.80212 51.6695 8.67878C52.0822 8.55544 52.5282 8.49377 53.0078 8.49377C53.6657 8.49377 54.2791 8.59469 54.8479 8.79651C55.4166 8.99834 55.924 9.28987 56.3701 9.6711L55.5839 10.7811C54.7698 10.1308 53.9055 9.80565 52.991 9.80565C52.5227 9.80565 52.1268 9.90656 51.8034 10.1084C51.4911 10.299 51.335 10.6074 51.335 11.0334C51.335 11.2128 51.3684 11.3642 51.4353 11.4875C51.5022 11.6109 51.6082 11.7174 51.7532 11.8071C51.9093 11.8968 52.1045 11.9809 52.3386 12.0594C52.584 12.1267 52.8851 12.2052 53.242 12.2949C53.833 12.4406 54.3404 12.5864 54.7642 12.7321C55.1991 12.8779 55.556 13.0517 55.8348 13.2535C56.1136 13.4441 56.3199 13.674 56.4537 13.9431C56.5876 14.201 56.6545 14.515 56.6545 14.885C56.6545 15.7259 56.3366 16.3931 55.701 16.8864C55.0765 17.3686 54.2233 17.6096 53.1416 17.6096Z" fill="white"/>
<path d="M57.6932 13.0349C57.6932 12.4182 57.7991 11.8351 58.011 11.2857C58.2229 10.7363 58.524 10.2542 58.9143 9.83929C59.3158 9.42442 59.7953 9.09925 60.3529 8.86379C60.9105 8.61711 61.5351 8.49377 62.2265 8.49377C63.1298 8.49377 63.9049 8.6956 64.5517 9.09925C65.2096 9.49169 65.7003 10.0187 66.0237 10.6802L64.2338 11.2521C64.022 10.8821 63.7376 10.5961 63.3807 10.3943C63.0238 10.1813 62.628 10.0748 62.193 10.0748C61.825 10.0748 61.4793 10.1476 61.1559 10.2934C60.8436 10.4392 60.5704 10.6466 60.3362 10.9157C60.102 11.1736 59.918 11.4819 59.7842 11.8407C59.6504 12.1995 59.5835 12.5976 59.5835 13.0349C59.5835 13.461 59.6504 13.859 59.7842 14.229C59.9292 14.5878 60.1187 14.9018 60.3529 15.1709C60.5983 15.44 60.8771 15.653 61.1893 15.81C61.5127 15.9558 61.8529 16.0287 62.2098 16.0287C62.4328 16.0287 62.6558 16.0006 62.8789 15.9446C63.1019 15.8773 63.3026 15.7876 63.4811 15.6755C63.6707 15.5633 63.8324 15.4344 63.9662 15.2886C64.1112 15.1429 64.2171 14.9859 64.284 14.8177L66.0907 15.3559C65.8007 16.0174 65.3156 16.5613 64.6353 16.9873C63.955 17.4022 63.1521 17.6096 62.2265 17.6096C61.5462 17.6096 60.9273 17.4863 60.3697 17.2396C59.8121 16.9929 59.3325 16.6622 58.9311 16.2473C58.5407 15.8212 58.2341 15.3335 58.011 14.7841C57.7991 14.2346 57.6932 13.6516 57.6932 13.0349Z" fill="white"/>
<path d="M69.9313 17.6096C69.5075 17.6096 69.1116 17.5424 68.7436 17.4078C68.3867 17.262 68.0745 17.0658 67.8068 16.8191C67.5503 16.5725 67.344 16.2809 67.1879 15.9446C67.0429 15.6082 66.9704 15.2438 66.9704 14.8513C66.9704 14.4365 67.0597 14.0608 67.2381 13.7245C67.4165 13.3881 67.6674 13.0966 67.9909 12.8499C68.3254 12.6032 68.7157 12.4126 69.1618 12.278C69.619 12.1435 70.1209 12.0762 70.6673 12.0762C71.08 12.0762 71.487 12.1154 71.8885 12.1939C72.29 12.2612 72.6524 12.3565 72.9758 12.4799V11.8744C72.9758 11.224 72.7918 10.7195 72.4238 10.3607C72.0558 9.99066 71.526 9.80565 70.8346 9.80565C70.3662 9.80565 69.9034 9.89535 69.4462 10.0748C69.0001 10.2429 68.5373 10.4896 68.0578 10.8148L67.489 9.63746C68.6154 8.875 69.7863 8.49377 71.0019 8.49377C72.2063 8.49377 73.1431 8.80212 73.8122 9.41881C74.4813 10.0355 74.8159 10.9213 74.8159 12.0762V15.255C74.8159 15.6474 74.9776 15.8493 75.301 15.8605V17.4414C75.1226 17.4751 74.9664 17.4975 74.8326 17.5087C74.7099 17.5199 74.5873 17.5255 74.4646 17.5255C74.1077 17.5255 73.8289 17.4358 73.6282 17.2564C73.4386 17.077 73.3215 16.8472 73.2769 16.5669L73.2267 16.0118C72.8364 16.5276 72.3513 16.9257 71.7714 17.206C71.2026 17.4751 70.5893 17.6096 69.9313 17.6096ZM70.4331 16.2473C70.8792 16.2473 71.2974 16.1688 71.6877 16.0118C72.0892 15.8436 72.4015 15.6138 72.6245 15.3223C72.8587 15.1204 72.9758 14.9074 72.9758 14.6831V13.5226C72.6635 13.3993 72.329 13.304 71.9721 13.2367C71.6264 13.1694 71.2863 13.1358 70.9517 13.1358C70.2937 13.1358 69.7529 13.2816 69.3291 13.5731C68.9165 13.8534 68.7102 14.229 68.7102 14.7C68.7102 15.1373 68.8719 15.5073 69.1953 15.81C69.5187 16.1015 69.9313 16.2473 70.4331 16.2473Z" fill="white"/>
<path d="M82.0165 17.6096C81.3139 17.6096 80.695 17.4414 80.1597 17.1051C79.6244 16.7687 79.2006 16.3314 78.8884 15.7932V21.0239H77.0483V8.64514H78.6709V10.2261C79.0055 9.69913 79.4348 9.27866 79.959 8.9647C80.4943 8.65075 81.0965 8.49377 81.7656 8.49377C82.3678 8.49377 82.9198 8.61711 83.4217 8.86379C83.9235 9.11047 84.3584 9.44124 84.7265 9.85611C85.0945 10.271 85.3788 10.7531 85.5796 11.3025C85.7915 11.852 85.8974 12.4294 85.8974 13.0349C85.8974 13.674 85.8026 14.2739 85.613 14.8345C85.4235 15.3839 85.1558 15.8661 84.8101 16.2809C84.4644 16.6846 84.0518 17.0098 83.5722 17.2564C83.1038 17.4919 82.5853 17.6096 82.0165 17.6096ZM81.4143 16.0287C81.8046 16.0287 82.1559 15.9446 82.4682 15.7764C82.7916 15.6082 83.0648 15.3839 83.2878 15.1036C83.522 14.8233 83.7005 14.5037 83.8231 14.1449C83.9458 13.7861 84.0072 13.4161 84.0072 13.0349C84.0072 12.6312 83.9347 12.25 83.7897 11.8912C83.6559 11.5324 83.4663 11.2184 83.2209 10.9493C82.9867 10.6802 82.7024 10.4672 82.3678 10.3102C82.0332 10.1532 81.6708 10.0748 81.2805 10.0748C81.0463 10.0748 80.8009 10.1196 80.5445 10.2093C80.288 10.299 80.0482 10.4223 79.8251 10.5793C79.6021 10.7363 79.4069 10.9213 79.2397 11.1343C79.0724 11.3362 78.9553 11.5604 78.8884 11.8071V14.1113C78.9999 14.3804 79.1449 14.6327 79.3233 14.8681C79.5017 15.1036 79.6969 15.3054 79.9088 15.4736C80.1318 15.6418 80.3716 15.7764 80.6281 15.8773C80.8846 15.9782 81.1467 16.0287 81.4143 16.0287Z" fill="white"/>
<path d="M91.5169 17.6096C90.8366 17.6096 90.2177 17.4919 89.66 17.2564C89.1024 17.0098 88.6229 16.679 88.2214 16.2641C87.8311 15.8493 87.5244 15.3671 87.3014 14.8177C87.0895 14.2683 86.9836 13.6852 86.9836 13.0685C86.9836 12.4518 87.0895 11.8688 87.3014 11.3194C87.5244 10.7587 87.8311 10.271 88.2214 9.85611C88.6229 9.43003 89.1024 9.09925 89.66 8.86379C90.2177 8.61711 90.8422 8.49377 91.5336 8.49377C92.2139 8.49377 92.8272 8.61711 93.3737 8.86379C93.9313 9.11047 94.4052 9.44124 94.7956 9.85611C95.1859 10.2598 95.4814 10.7363 95.6821 11.2857C95.894 11.8239 96 12.3902 96 12.9844C96 13.119 95.9944 13.2479 95.9832 13.3713C95.9721 13.4834 95.9609 13.5787 95.9498 13.6572H88.9407C88.9742 14.0496 89.0634 14.4028 89.2084 14.7168C89.3645 15.0307 89.5597 15.3054 89.7939 15.5409C90.0392 15.7652 90.3124 15.939 90.6135 16.0623C90.9258 16.1856 91.2492 16.2473 91.5838 16.2473C91.8291 16.2473 92.0689 16.2193 92.3031 16.1632C92.5484 16.0959 92.7715 16.0062 92.9722 15.8941C93.1729 15.7708 93.3514 15.625 93.5075 15.4568C93.6636 15.2886 93.7863 15.1036 93.8755 14.9018L95.4479 15.3559C95.1468 16.0174 94.645 16.5613 93.9424 16.9873C93.251 17.4022 92.4425 17.6096 91.5169 17.6096ZM94.1766 12.3789C94.1432 12.0089 94.0484 11.6669 93.8922 11.353C93.7473 11.039 93.5577 10.7755 93.3235 10.5625C93.0893 10.3382 92.8161 10.1645 92.5038 10.0411C92.1916 9.91777 91.8626 9.85611 91.5169 9.85611C91.1711 9.85611 90.8422 9.91777 90.5299 10.0411C90.2288 10.1645 89.9612 10.3382 89.727 10.5625C89.4928 10.7755 89.3032 11.039 89.1582 11.353C89.0132 11.6669 88.924 12.0089 88.8906 12.3789H94.1766Z" fill="white"/>
<path d="M40.2162 34.2604V22.3189H45.3851C45.9204 22.3189 46.4111 22.4311 46.8572 22.6553C47.3144 22.8796 47.7048 23.1767 48.0282 23.5467C48.3516 23.9055 48.6025 24.3204 48.7809 24.7913C48.9705 25.251 49.0653 25.722 49.0653 26.2041C49.0653 26.6078 49.0096 26.9946 48.898 27.3646C48.7865 27.7346 48.6304 28.0766 48.4296 28.3906C48.2289 28.7045 47.9836 28.9792 47.6936 29.2147C47.4037 29.439 47.0858 29.6071 46.7401 29.7193L49.5337 34.2604H47.4092L44.8331 30.1061H42.0897V34.2604H40.2162ZM42.0897 28.441H45.3684C45.6361 28.441 45.8758 28.385 46.0877 28.2728C46.3108 28.1495 46.5003 27.9869 46.6565 27.7851C46.8126 27.5721 46.9353 27.331 47.0245 27.0619C47.1137 26.7928 47.1583 26.5069 47.1583 26.2041C47.1583 25.9014 47.1026 25.6154 46.991 25.3463C46.8907 25.0772 46.7513 24.8418 46.5728 24.64C46.4056 24.4381 46.2048 24.2811 45.9706 24.169C45.7476 24.0457 45.5134 23.984 45.2681 23.984H42.0897V28.441Z" fill="white"/>
<path d="M54.7275 34.4286C54.0361 34.4286 53.4116 34.3052 52.8539 34.0586C52.3075 33.8119 51.8391 33.4811 51.4488 33.0662C51.0585 32.6514 50.7574 32.1692 50.5455 31.6198C50.3336 31.0592 50.2276 30.4761 50.2276 29.8706C50.2276 29.2652 50.3336 28.6877 50.5455 28.1383C50.7574 27.5777 51.0585 27.0899 51.4488 26.675C51.8503 26.2602 52.3242 25.9294 52.8707 25.6827C53.4283 25.436 54.0472 25.3127 54.7275 25.3127C55.4078 25.3127 56.0211 25.436 56.5676 25.6827C57.1252 25.9294 57.5991 26.2602 57.9895 26.675C58.3909 27.0899 58.6976 27.5777 58.9095 28.1383C59.1214 28.6877 59.2273 29.2652 59.2273 29.8706C59.2273 30.4761 59.1214 31.0592 58.9095 31.6198C58.6976 32.1692 58.3909 32.6514 57.9895 33.0662C57.5991 33.4811 57.1252 33.8119 56.5676 34.0586C56.0211 34.3052 55.4078 34.4286 54.7275 34.4286ZM52.1179 29.8875C52.1179 30.3135 52.1848 30.706 52.3187 31.0648C52.4525 31.4236 52.6365 31.7375 52.8707 32.0066C53.1049 32.2645 53.3781 32.472 53.6904 32.629C54.0138 32.7747 54.3595 32.8476 54.7275 32.8476C55.0955 32.8476 55.4356 32.7747 55.7479 32.629C56.0713 32.472 56.3501 32.2589 56.5843 31.9898C56.8185 31.7207 57.0025 31.4068 57.1363 31.048C57.2701 30.6892 57.3371 30.2967 57.3371 29.8706C57.3371 29.4558 57.2701 29.0689 57.1363 28.7101C57.0025 28.3401 56.8185 28.0206 56.5843 27.7515C56.3501 27.4824 56.0713 27.2749 55.7479 27.1292C55.4356 26.9722 55.0955 26.8937 54.7275 26.8937C54.3706 26.8937 54.0305 26.9722 53.7071 27.1292C53.3948 27.2861 53.1216 27.4992 52.8874 27.7683C52.6532 28.0374 52.4636 28.3569 52.3187 28.727C52.1848 29.0858 52.1179 29.4726 52.1179 29.8875Z" fill="white"/>
<path d="M64.7904 34.4286C64.099 34.4286 63.4745 34.3052 62.9169 34.0586C62.3705 33.8119 61.9021 33.4811 61.5117 33.0662C61.1214 32.6514 60.8203 32.1692 60.6084 31.6198C60.3965 31.0592 60.2906 30.4761 60.2906 29.8706C60.2906 29.2652 60.3965 28.6877 60.6084 28.1383C60.8203 27.5777 61.1214 27.0899 61.5117 26.675C61.9132 26.2602 62.3872 25.9294 62.9336 25.6827C63.4912 25.436 64.1102 25.3127 64.7904 25.3127C65.4707 25.3127 66.0841 25.436 66.6305 25.6827C67.1881 25.9294 67.6621 26.2602 68.0524 26.675C68.4539 27.0899 68.7606 27.5777 68.9724 28.1383C69.1843 28.6877 69.2903 29.2652 69.2903 29.8706C69.2903 30.4761 69.1843 31.0592 68.9724 31.6198C68.7606 32.1692 68.4539 32.6514 68.0524 33.0662C67.6621 33.4811 67.1881 33.8119 66.6305 34.0586C66.0841 34.3052 65.4707 34.4286 64.7904 34.4286ZM62.1809 29.8875C62.1809 30.3135 62.2478 30.706 62.3816 31.0648C62.5154 31.4236 62.6994 31.7375 62.9336 32.0066C63.1678 32.2645 63.441 32.472 63.7533 32.629C64.0767 32.7747 64.4224 32.8476 64.7904 32.8476C65.1585 32.8476 65.4986 32.7747 65.8109 32.629C66.1343 32.472 66.4131 32.2589 66.6473 31.9898C66.8814 31.7207 67.0655 31.4068 67.1993 31.048C67.3331 30.6892 67.4 30.2967 67.4 29.8706C67.4 29.4558 67.3331 29.0689 67.1993 28.7101C67.0655 28.3401 66.8814 28.0206 66.6473 27.7515C66.4131 27.4824 66.1343 27.2749 65.8109 27.1292C65.4986 26.9722 65.1585 26.8937 64.7904 26.8937C64.4336 26.8937 64.0934 26.9722 63.77 27.1292C63.4578 27.2861 63.1845 27.4992 62.9504 27.7683C62.7162 28.0374 62.5266 28.3569 62.3816 28.727C62.2478 29.0858 62.1809 29.4726 62.1809 29.8875Z" fill="white"/>
<path d="M84.3047 34.2604H82.4646V29.3324C82.4646 28.5139 82.3308 27.914 82.0632 27.5328C81.7955 27.1516 81.4052 26.961 80.8922 26.961C80.3681 26.961 79.8885 27.1572 79.4536 27.5496C79.0298 27.9309 78.7231 28.4298 78.5336 29.0465V34.2604H76.6935V29.3324C76.6935 28.5027 76.5597 27.9028 76.292 27.5328C76.0244 27.1516 75.6396 26.961 75.1378 26.961C74.6136 26.961 74.1341 27.1516 73.6992 27.5328C73.2642 27.914 72.952 28.413 72.7624 29.0297V34.2604H70.9223V25.4641H72.5951V27.2301C72.9408 26.6134 73.3925 26.1424 73.9501 25.8173C74.5188 25.4809 75.1656 25.3127 75.8905 25.3127C76.6154 25.3127 77.1842 25.5033 77.5968 25.8846C78.0206 26.2658 78.2826 26.7423 78.383 27.3142C78.751 26.6638 79.2138 26.1705 79.7714 25.8341C80.329 25.4865 80.9647 25.3127 81.6784 25.3127C82.1914 25.3127 82.6152 25.4136 82.9498 25.6155C83.2955 25.8061 83.5687 26.064 83.7694 26.3891C83.9702 26.7143 84.1096 27.0955 84.1876 27.5328C84.2657 27.9589 84.3047 28.413 84.3047 28.8951V34.2604Z" fill="white"/>
<rect x="32.9899" y="15.7858" width="15.4561" height="1.64732" fill="white"/>
<rect x="32.9949" y="22.2847" width="11.478" height="1.6423" fill="white"/>
<path fill-rule="evenodd" clip-rule="evenodd" d="M20.7087 30.88L8.80387 24.6821L9.00996 24.2936L20.9147 30.4916L20.7087 30.88Z" fill="white"/>
<path fill-rule="evenodd" clip-rule="evenodd" d="M27.785 24.807V11.9104H28.228V24.807H27.785Z" fill="white"/>
<path fill-rule="evenodd" clip-rule="evenodd" d="M27.5635 16.7901L20.8694 20.7274L20.6783 20.3232L27.3374 16.4128L27.5635 16.7901Z" fill="white"/>
<path fill-rule="evenodd" clip-rule="evenodd" d="M26.8929 11.4851L20.3155 7.71834L12.0539 12.5393L18.488 16.2475L26.8929 11.4851ZM20.3134 7.21029L11.1771 12.5417L18.4861 16.7541L27.785 11.4851L27.4009 11.2691L20.3134 7.21029Z" fill="white"/>
<path d="M8.87414 24.7072L8.68543 24.5975L8.57468 16.2056L3.03757 12.9695M8.87414 24.7072L16.1803 20.5333M8.87414 24.7072L16.1803 28.522M16.5481 20.3232V28.6563L16.1803 28.522M16.5481 20.3232L3.03757 12.5417V10.3367L3.3698 10.1173L18.5415 1.50595L33.4773 10.4464V15.7656H33.9587L33.9764 10.1517L18.5419 1L3.13656 9.74397L2.5946 10.1019V28.2038L18.8743 37L20.5348 36.0979V36.1066L20.8605 35.921L21.0332 35.8272V35.8227L33.9194 28.2525L33.9381 22.8571H33.4773V27.9982L20.9778 35.348V30.9052L30.1135 25.8067L20.6783 20.3232M16.5481 20.3232L16.1803 20.5333M20.6783 20.3232L20.5902 20.3741V35.5674L18.8737 36.4999L3.03757 27.9434V12.9695M20.6783 20.3232L20.8694 20.7274L27.5635 16.7901L27.3374 16.4128L20.6783 20.3232ZM3.03757 12.9695V12.8049M16.1803 20.5333V28.522M27.4009 11.2691L20.3134 7.21029L11.1771 12.5417L18.4861 16.7541L27.785 11.4851L27.4009 11.2691ZM15.6642 20.3216L9.12133 24.0595L9.02152 16.4957L15.6642 20.3216ZM29.2492 25.819L21.0332 30.356V21.0329L29.2492 25.819ZM20.3155 7.71834L26.8929 11.4851L18.488 16.2475L12.0539 12.5393L20.3155 7.71834ZM8.80387 24.6821L20.7087 30.88L20.9147 30.4916L9.00996 24.2936L8.80387 24.6821ZM27.785 11.9104V24.807H28.228V11.9104H27.785Z" stroke="white" stroke-width="1.17537"/>
</svg>

<svg width="96" height="38" fill="none" xmlns="http://www.w3.org/2000/svg"><path d="M48.363 15.776v1.665h-8.147V5.5h7.996v1.665H42.09v3.397h5.302v1.565H42.09v3.65h6.273zm4.779 1.834a6.899 6.899 0 01-2.108-.337 5.442 5.442 0 01-1.79-.992l.736-1.177a7.05 7.05 0 001.556.874c.513.19 1.037.286 1.572.286.547 0 .976-.106 1.288-.32.324-.213.485-.515.485-.908 0-.37-.178-.639-.535-.807-.357-.168-.914-.353-1.673-.555a20.952 20.952 0 01-1.405-.42 3.605 3.605 0 01-.953-.471 1.65 1.65 0 01-.536-.623c-.111-.235-.167-.521-.167-.857 0-.449.084-.847.25-1.195.18-.347.42-.639.72-.874a3.223 3.223 0 011.087-.555 4.654 4.654 0 011.339-.185c.658 0 1.271.1 1.84.303a4.783 4.783 0 011.522.874l-.786 1.11c-.814-.65-1.678-.975-2.593-.975-.468 0-.864.1-1.188.302-.312.191-.468.5-.468.925 0 .18.033.331.1.455.067.123.173.23.318.32.156.089.352.173.586.251.245.068.546.146.903.236a18.04 18.04 0 011.522.437c.435.146.792.32 1.07.522.28.19.486.42.62.69.134.257.2.571.2.941 0 .84-.317 1.508-.953 2.001-.624.483-1.478.724-2.56.724zm4.551-4.575c0-.617.106-1.2.318-1.75.212-.549.513-1.03.903-1.446.402-.415.881-.74 1.439-.975.557-.247 1.182-.37 1.873-.37.904 0 1.679.202 2.326.605.658.393 1.148.92 1.472 1.581l-1.79.572a2.244 2.244 0 00-.853-.858 2.273 2.273 0 00-1.188-.32 2.49 2.49 0 00-1.037.22 2.455 2.455 0 00-.82.622 2.829 2.829 0 00-.552.925c-.134.359-.2.757-.2 1.194 0 .426.066.824.2 1.194.145.359.335.673.569.942.245.269.524.482.836.639.324.146.664.219 1.02.219.224 0 .447-.028.67-.084a2.45 2.45 0 00.602-.27c.19-.112.351-.24.485-.386.145-.146.251-.303.318-.471l1.807.538c-.29.661-.775 1.205-1.456 1.631-.68.415-1.483.623-2.409.623-.68 0-1.299-.124-1.856-.37a4.524 4.524 0 01-1.439-.993 4.843 4.843 0 01-.92-1.463 4.819 4.819 0 01-.318-1.75zm12.238 4.575c-.424 0-.82-.068-1.187-.202a3.095 3.095 0 01-.937-.589 2.885 2.885 0 01-.62-.874 2.732 2.732 0 01-.217-1.094c0-.415.09-.79.268-1.127.178-.336.43-.627.753-.874a3.806 3.806 0 011.17-.572 5.32 5.32 0 011.506-.202c.413 0 .82.04 1.221.118.402.067.764.162 1.088.286v-.606c0-.65-.184-1.155-.552-1.513-.368-.37-.898-.555-1.59-.555-.468 0-.93.09-1.388.269a6.719 6.719 0 00-1.388.74l-.569-1.178c1.126-.762 2.297-1.143 3.513-1.143 1.204 0 2.141.308 2.81.925.67.617 1.004 1.502 1.004 2.657v3.179c0 .392.162.594.485.605v1.581a4.663 4.663 0 01-.468.068 4.045 4.045 0 01-.368.017c-.357 0-.636-.09-.837-.27a1.17 1.17 0 01-.351-.69l-.05-.554c-.39.516-.876.914-1.456 1.194a4.248 4.248 0 01-1.84.404zm.502-1.363a3.33 3.33 0 001.255-.235c.401-.168.713-.398.936-.69.235-.202.352-.415.352-.639v-1.16a5.505 5.505 0 00-1.004-.286 5.331 5.331 0 00-1.02-.101c-.658 0-1.2.146-1.623.437-.412.28-.619.656-.619 1.127 0 .437.162.807.485 1.11.324.292.736.437 1.238.437zm11.583 1.363c-.702 0-1.321-.169-1.856-.505a3.756 3.756 0 01-1.272-1.312v5.23h-1.84V8.646h1.623v1.581a3.857 3.857 0 011.288-1.261 3.504 3.504 0 011.807-.471 3.7 3.7 0 011.656.37 4.21 4.21 0 011.305.992c.367.415.652.897.853 1.447.212.549.317 1.126.317 1.732a5.58 5.58 0 01-.284 1.8 4.555 4.555 0 01-.803 1.446 4.053 4.053 0 01-1.238.975 3.414 3.414 0 01-1.556.354zm-.602-1.581c.39 0 .742-.084 1.054-.253.324-.168.597-.392.82-.672.234-.28.413-.6.535-.96.123-.358.184-.728.184-1.11 0-.403-.072-.784-.217-1.143a2.87 2.87 0 00-.57-.942 2.554 2.554 0 00-1.94-.874c-.234 0-.48.045-.736.134-.256.09-.496.213-.719.37a2.76 2.76 0 00-.585.555 1.77 1.77 0 00-.352.673v2.304c.112.27.257.522.435.757.179.236.374.437.586.606.223.168.463.302.72.403.256.101.518.152.785.152zm10.103 1.581c-.68 0-1.3-.118-1.857-.354a4.523 4.523 0 01-1.439-.992 4.63 4.63 0 01-.92-1.446 4.818 4.818 0 01-.317-1.75c0-.616.106-1.2.317-1.749.223-.56.53-1.048.92-1.463a4.192 4.192 0 011.439-.992c.558-.247 1.182-.37 1.874-.37.68 0 1.293.123 1.84.37a4.332 4.332 0 011.422.992c.39.404.685.88.886 1.43a4.595 4.595 0 01.268 2.371h-7.01c.034.393.123.746.268 1.06.157.314.352.588.586.824a2.601 2.601 0 001.79.706c.245 0 .485-.028.72-.084a2.98 2.98 0 00.668-.269c.2-.123.38-.269.535-.437.157-.168.28-.353.368-.555l1.573.454c-.301.661-.803 1.205-1.506 1.631-.691.415-1.5.623-2.425.623zm2.66-5.231a2.858 2.858 0 00-.285-1.026 2.428 2.428 0 00-.569-.79 2.5 2.5 0 00-.82-.522 2.662 2.662 0 00-.986-.185c-.346 0-.675.062-.987.185a2.546 2.546 0 00-.803.521 2.43 2.43 0 00-.569.791 3.09 3.09 0 00-.267 1.026h5.286zM40.216 34.26V22.32h5.17c.534 0 1.025.112 1.471.336.457.225.848.522 1.171.892.324.358.575.773.753 1.244.19.46.284.931.284 1.413 0 .404-.055.79-.167 1.16a4.13 4.13 0 01-.468 1.027 3.46 3.46 0 01-.736.824c-.29.224-.608.392-.954.504l2.794 4.541h-2.125l-2.576-4.154H42.09v4.154h-1.874zm1.874-5.819h3.278c.268 0 .508-.056.72-.168.223-.123.412-.286.569-.488a2.62 2.62 0 00.368-.723c.089-.27.133-.555.133-.858 0-.303-.055-.589-.167-.858a2.23 2.23 0 00-.418-.706 1.76 1.76 0 00-.602-.471 1.432 1.432 0 00-.703-.185H42.09v4.457zm12.637 5.988c-.69 0-1.315-.124-1.873-.37a4.379 4.379 0 01-1.405-.993 4.396 4.396 0 01-.904-1.446 4.907 4.907 0 01-.317-1.75c0-.605.106-1.182.317-1.732.212-.56.514-1.048.904-1.463a4.579 4.579 0 011.422-.992 4.54 4.54 0 011.856-.37c.68 0 1.294.123 1.84.37a4.334 4.334 0 011.422.992c.402.415.709.903.92 1.463.212.55.318 1.127.318 1.733 0 .605-.106 1.188-.317 1.749a4.263 4.263 0 01-.92 1.446 4.34 4.34 0 01-1.422.993c-.547.246-1.16.37-1.84.37zm-2.61-4.542c0 .427.068.819.202 1.178.133.359.317.672.552.942.234.258.507.465.82.622.323.146.668.219 1.036.219a2.37 2.37 0 001.02-.219 2.59 2.59 0 00.837-.64c.234-.268.418-.582.552-.941a3.34 3.34 0 00.201-1.177c0-.415-.067-.802-.2-1.16a2.993 2.993 0 00-.553-.96 2.408 2.408 0 00-.836-.622 2.24 2.24 0 00-1.02-.235c-.357 0-.697.078-1.02.235-.313.157-.586.37-.82.64a3.242 3.242 0 00-.57.958c-.133.359-.2.746-.2 1.16zm12.673 4.542c-.691 0-1.316-.124-1.873-.37a4.38 4.38 0 01-1.405-.993 4.396 4.396 0 01-.904-1.446 4.907 4.907 0 01-.317-1.75c0-.605.106-1.182.317-1.732.212-.56.513-1.048.904-1.463a4.58 4.58 0 011.422-.992 4.54 4.54 0 011.856-.37c.68 0 1.294.123 1.84.37a4.333 4.333 0 011.422.992c.402.415.709.903.92 1.463.212.55.318 1.127.318 1.733 0 .605-.106 1.188-.318 1.749a4.26 4.26 0 01-.92 1.446c-.39.415-.864.746-1.422.993-.546.246-1.16.37-1.84.37zm-2.61-4.542c0 .427.068.819.202 1.178.133.359.317.672.552.942.234.258.507.465.82.622.323.146.668.219 1.036.219s.709-.073 1.02-.219a2.59 2.59 0 00.837-.64c.234-.268.418-.582.552-.941a3.34 3.34 0 00.201-1.177c0-.415-.067-.802-.2-1.16a2.995 2.995 0 00-.553-.96 2.408 2.408 0 00-.836-.622 2.24 2.24 0 00-1.02-.235c-.357 0-.698.078-1.021.235-.312.157-.586.37-.82.64a3.237 3.237 0 00-.568.958 3.292 3.292 0 00-.201 1.16zm22.125 4.373h-1.84v-4.928c0-.818-.134-1.418-.402-1.8-.267-.38-.658-.571-1.17-.571-.525 0-1.005.196-1.44.589-.423.38-.73.88-.92 1.497v5.213h-1.84v-4.928c0-.83-.133-1.43-.401-1.8-.268-.38-.652-.571-1.154-.571-.524 0-1.004.19-1.439.572-.435.381-.747.88-.937 1.497v5.23h-1.84v-8.796h1.673v1.766c.346-.617.797-1.088 1.355-1.413.569-.336 1.216-.504 1.94-.504.725 0 1.294.19 1.707.572.424.38.686.857.786 1.43.368-.651.83-1.145 1.388-1.48.558-.349 1.194-.522 1.907-.522.513 0 .937.1 1.272.303.346.19.619.448.82.773.2.325.34.707.418 1.144.078.426.117.88.117 1.362v5.365z" fill="#fff"/><path fill="#fff" d="M32.99 15.786h15.456v1.647H32.99zm.005 6.499h11.478v1.642H32.995z"/><path fill-rule="evenodd" clip-rule="evenodd" d="M20.709 30.88L8.804 24.682l.206-.388 11.905 6.198-.206.388zm7.076-6.073V11.91h.443v12.897h-.443zm-.221-8.017l-6.695 3.937-.19-.404 6.658-3.91.227.377zm-.671-5.305l-6.578-3.767-8.261 4.821 6.434 3.708 8.405-4.762zm-6.58-4.275l-9.136 5.332 7.31 4.212 9.298-5.269-.384-.216-7.088-4.059z" fill="#fff"/><path d="M8.874 24.707l-.189-.11-.11-8.391-5.537-3.236m5.836 11.737l7.306-4.174m-7.306 4.174l7.306 3.815m.368-8.199v8.333l-.368-.134m.368-8.199l-13.51-7.781v-2.205l.332-.22 15.17-8.611 14.936 8.94v5.32h.482l.017-5.614L18.542 1 3.137 9.744l-.542.358v18.102L18.875 37l1.66-.902v.009l.325-.186.173-.094v-.004l12.886-7.57.02-5.396h-.462v5.141l-12.5 7.35v-4.443l9.136-5.098-9.435-5.484m-4.13 0l-.368.21m4.498-.21l-.088.051v15.193l-1.716.933-15.836-8.557V12.97m17.64 7.354l.191.404 6.695-3.937-.227-.377-6.659 3.91zM3.038 12.97v-.164m13.142 7.728v7.989M27.4 11.269L20.314 7.21l-9.136 5.332 7.31 4.212 9.298-5.269-.384-.216zm-11.736 9.053L9.121 24.06l-.1-7.564 6.643 3.826zm13.585 5.497l-8.216 4.537v-9.323l8.216 4.786zm-8.933-18.1l6.577 3.766-8.405 4.762-6.434-3.708 8.261-4.82zM8.803 24.681l11.905 6.198.206-.388L9.01 24.294l-.206.388zM27.785 11.91v12.897h.443V11.91h-.443z" stroke="#fff" stroke-width="1.175"/></svg>
